X:1
T:Title
%%score { ( 1 2 5 ) | ( 3 4 ) }
L:1/8
Q:1/4=144
M:6/4
K:Db
V:1 treble nm="Grand Piano"
V:2 treble 
V:5 treble 
V:3 bass 
V:4 bass 
V:1
 F6 .G6 | B6 A6 | d6 B6 | E,2 A2 A2 A2 [GA]2 [GA]2 | F6 .G6 | B6 A6 | d6 B6 | %7
w: B.~D.~Ackley *|||||||
 c12[K:bass][K:treble] | c6 .E6 | G6 A6 | F12[K:bass] | E,2[K:treble] A2 A2 A2 [GA]2 [GA]2 | %12
w: |||||
 F6 .G6 | B6 A6 | d6 B6 | c12[K:bass][K:treble] | c6 .B6 | d6 B6 | e6 z6 | %19
w: |||||||
 [EAce]2 [ce]2 [ce]2 [_FAc_f]2 [cf]2 [cf]2 | [FAf]6 [GAe]4 [GAc]2 | [FAd]6 [DFA]4 [A,FA]2 | %22
w: |||
 [FB]4 [Fd]2 [Fc]4 [FB]2 | c12 | d6 c4 B2 | A6 [CE]4 [DF]2 | C4- [CB]2 [FA]4 G2 | F12 | F6 G4 =G2 | %29
w: |||||||
 B6 A6 | =A4 F2 B4 c2 | d6 B6 | A6 B4 A2 | [Aa]6 d4 e2 | f4 f2 f4 e2 | [Fd]12 |] %36
w: |||||||
V:2
 z2 D2 D2 z2 C2 [B,D=G]2 | z2 F2 F2 z2 F2 F2 | z2 B2 B2 z2 A2 A2 | x12 | z2 D2 D2 z2 C2 [B,D=G]2 | %5
 z2 F2 F2 z2 F2 F2 | z2 A2 A2 z2 =G2 G2 | z2 A2 A2[K:bass] z2[K:treble] A2 A2 | %8
 z2 A2 A2 z2 C2 [A,CF]2 | z2 E2 E2 z2 G2 E2 | z2 D2 D2[K:bass] z2 _C2 C2 | x2[K:treble] x10 | %12
 z2 D2 D2 z2 C2 [B,D=G]2 | z2 F2 F2 z2 F2 F2 | z2 A2 A2 z2 =G2 G2 | %15
 z2 A2 A2[K:bass] z2[K:treble] A2 A2 | z2 A2 A2 z2 =G2 [E=Ac]2 | z2 B2 B2 z2 =G2 G2 | %18
 z2 A2 A2 [E=Gde]2 [de]2 [de]2 | x12 | x12 | x12 | x12 | G4- [EG]2 G6 | x12 | x12 | .[EG]6 C6 | %27
 z4 A,2 D6 | x12 | x12 | x12 | x12 | x12 | x12 | x12 | x12 |] %36
V:3
 z2 A,2 A,2 z2 A,2 [_F,,_F,]2 | z2 [A,D]2 [A,D]2 z2 [A,D]2 [A,D]2 | %2
 z2[K:treble] [DF]2 [DF]2[K:bass] z2[K:treble] [B,=DF]2 [B,DF]2 | %3
 z2 [B,CG]2 [A,CG]2 [G,CG]2[K:bass] [F,C]2 [E,C]2 | z2 A,2 A,2 z2 A,2 [_F,,_F,]2 | %5
 z2 [B,D]2 [B,D]2 z2 [A,D]2 [A,D]2 | z2 D2 D2 z2 D2 D2 | %7
 z2[K:treble] [CEG]2 [CEG]2[K:bass] z2[K:treble] [CEG]2 [CEG]2 | %8
 z2[K:treble] [CEG]2 [CEG]2[K:bass] z2 A,2 [F,,E,]2 | z2 [A,C]2 [A,C]2 z2 [A,CE]2 [A,C]2 | %10
 z2 A,2 A,2 z2 A,2 A,2 | z2[K:treble] [B,CG]2 [A,CG]2[K:bass] [G,CG]2 [F,C]2 [E,C]2 | %12
 z2 A,2 A,2 z2 A,2 [_F,,_F,]2 | z2 [B,D]2 [B,D]2 z2 [A,D]2 [A,D]2 | z2 D2 D2 z2 D2 D2 | %15
 z2 [CE]2 [CE]2 z2 [CE]2 [CE]2 | z2 [CE]2 [CE]2 z2 [DE]2 [C,,C,]2 | %17
 z2[K:treble] [E=G]2 [EG]2[K:bass] z2 [DE]2 [DE]2 | %18
 z2[K:treble] [EG]2 [EG]2[K:bass] z2[K:treble] [E=G]2 [EG]2 | %19
 z2[K:treble] [EA]2 [EA]2[K:bass] z2[K:treble] [_FA]2 [FA]2 | [D,D]6 A,4 A,2 | D,6 D,4 D,2 | %22
 [D,A,]6 [D,D]6 | [E,A,]4 A,2 A,6 | [A,EG]6 [A,EG]4 [A,DG]2 | [A,CG]6[K:bass] A,,4 A,,2 | %26
 z4 G2 z4 E2 | [D,D]4 D,2 D,6 | [D,A,D]6 [E,A,C]4 [_F,B,C]2 | [G,CE]6 [G,CE]6 | %30
 [F,CE]4[K:treble] [=A,CE]2 [B,DF]4 [B,EF]2 | [B,DF]6 [=G,D_F]6 | [A,DF]6[K:bass] [G,CE]4 [G,CE]2 | %33
 [F,D]6[K:treble] [B,DF]4 [B,D=G]2 | [A,DA]4 [A,DFA]2 [A,CG]4 [A,CG]2 | [D,D]12 |] %36
V:4
 [D,,D,]6 .[E,,E,]6 | [F,,F,]6 [D,,D,]6 | [B,,,B,,]6[K:treble][K:bass] [=D,,=D,]6[K:treble] | %3
 x8[K:bass] x4 | [D,,D,]6 .[E,,E,]6 | [F,,F,]6 [D,,D,]6 | [F,,F,]6 [_F,,_F,]6 | %7
 [E,,E,]6[K:treble][K:bass] A,,,6[K:treble] | [A,,A,]6[K:treble][K:bass] .[G,,G,]6 | %9
 [E,,E,]6 [A,,,A,,]6 | [C,,D,]6 =D,,6 | x2[K:treble] x4[K:bass] x6 | [D,,D,]6 .[E,,E,]6 | %13
 [F,,F,]6 [D,,D,]6 | [F,,F,]6 [_F,,_F,]6 | [E,,E,]6 A,,,6 | [E,,E,]6 .[D,,D,]6 | %17
 [B,,,B,,]6[K:treble][K:bass] [E,,E,]6 | [C,,C,]6[K:treble][K:bass] [B,,,B,,]6[K:treble] | %19
 [A,,,A,,]6[K:treble][K:bass] [A,,A,]6[K:treble] | x12 | x12 | x12 | x12 | x12 | x6[K:bass] x6 | %26
 A,,6 A,,6 | x12 | x12 | x12 | x4[K:treble] x8 | x12 | x6[K:bass] x6 | x6[K:treble] x6 | x12 | %35
 x12 |] %36
V:5
 x12 | x12 | x12 | x12 | x12 | x12 | x12 | z6[K:bass] A,,6[K:treble] | x12 | x12 | %10
 z6[K:bass] =D,6 | x2[K:treble] x10 | x12 | x12 | x12 | z6[K:bass] A,,6[K:treble] | x12 | x12 | %18
 x12 | x12 | x12 | x12 | x12 | x12 | x12 | x12 | x12 | x12 | x12 | x12 | x12 | x12 | x12 | x12 | %34
 x12 | x12 |] %36

